public/images/svg/numbers/6_dark.svg

<svg width="220" height="280" viewBox="0 0 220 280" fill="none" xmlns="http://www.w3.org/2000/svg">
<mask id="mask0_507_1347" style="mask-type:alpha" maskUnits="userSpaceOnUse" x="1" y="0" width="199" height="280">
<path d="M103.836 89.0196C132.358 89.8039 155.516 99.085 173.31 116.863C191.103 134.379 200 156.863 200 184.314C200 212.288 190.711 235.294 172.132 253.333C153.554 271.111 129.611 280 100.304 280C70.9967 280 47.0539 271.111 28.4753 253.333C10.1584 235.556 1 212.549 1 184.314C1 163.399 6.36423 144.967 17.0927 129.02L102.659 0H164.675L103.836 89.0196ZM67.7258 216.863C76.3609 224.967 87.2203 229.02 100.304 229.02C113.387 229.02 124.247 224.967 132.882 216.863C141.778 208.758 146.227 197.908 146.227 184.314C146.227 170.98 141.778 160.261 132.882 152.157C124.247 144.052 113.387 140 100.304 140C87.2203 140 76.3609 144.052 67.7258 152.157C59.0907 160 54.7732 170.719 54.7732 184.314C54.7732 197.908 59.0907 208.758 67.7258 216.863Z" fill="white"/>
</mask>
<g mask="url(#mask0_507_1347)">
<circle opacity="0.3" cx="20" cy="250" r="70" fill="#36374A"/>
<circle opacity="0.3" cx="170" cy="10" r="70" fill="#36374A"/>
<g filter="url(#filter0_b_507_1347)">
<path d="M103.836 89.0196C132.358 89.8039 155.516 99.085 173.31 116.863C191.103 134.379 200 156.863 200 184.314C200 212.288 190.711 235.294 172.132 253.333C153.554 271.111 129.611 280 100.304 280C70.9967 280 47.0539 271.111 28.4753 253.333C10.1584 235.556 1 212.549 1 184.314C1 163.399 6.36423 144.967 17.0927 129.02L102.659 0H164.675L103.836 89.0196ZM67.7258 216.863C76.3609 224.967 87.2203 229.02 100.304 229.02C113.387 229.02 124.247 224.967 132.882 216.863C141.778 208.758 146.227 197.908 146.227 184.314C146.227 170.98 141.778 160.261 132.882 152.157C124.247 144.052 113.387 140 100.304 140C87.2203 140 76.3609 144.052 67.7258 152.157C59.0907 160 54.7732 170.719 54.7732 184.314C54.7732 197.908 59.0907 208.758 67.7258 216.863Z" fill="white" fill-opacity="0.06"/>
</g>
</g>
<defs>
<filter id="filter0_b_507_1347" x="-69" y="-70" width="339" height="420" filterUnits="userSpaceOnUse" color-interpolation-filters="sRGB">
<feFlood flood-opacity="0" result="BackgroundImageFix"/>
<feGaussianBlur in="BackgroundImage" stdDeviation="35"/>
<feComposite in2="SourceAlpha" operator="in" result="effect1_backgroundBlur_507_1347"/>
<feBlend mode="normal" in="SourceGraphic" in2="effect1_backgroundBlur_507_1347" result="shape"/>
</filter>
</defs>
</svg>

<?xml version="1.0" encoding="utf-8"?>
<!-- Generator: Adobe Illustrator 22.1.0, SVG Export Plug-In . SVG Version: 6.00 Build 0)  -->
<svg version="1.1" id="Layer_1" xmlns="http://www.w3.org/2000/svg" xmlns:xlink="http://www.w3.org/1999/xlink" x="0px" y="0px"
	 viewBox="0 0 220 280" style="enable-background:new 0 0 220 280;" xml:space="preserve">
<style type="text/css">
	.st0{fill:#1B1A22;}
	.st1{fill:url(#SVGID_1_);fill-opacity:0.6;}
	.st2{fill:url(#SVGID_2_);fill-opacity:0.6;}
</style>
<g>
	<path class="st0" d="M103.8,89c28.5,0.8,51.7,10.1,69.5,27.8c17.8,17.5,26.7,40,26.7,67.5c0,28-9.3,51-27.9,69
		c-18.6,17.8-42.5,26.7-71.8,26.7c-29.3,0-53.3-8.9-71.8-26.7C10.2,235.6,1,212.5,1,184.3C1,163.4,6.4,145,17.1,129L102.7,0h62
		L103.8,89z M67.7,216.9c8.6,8.1,19.5,12.2,32.6,12.2c13.1,0,23.9-4.1,32.6-12.2c8.9-8.1,13.3-19,13.3-32.5
		c0-13.3-4.4-24.1-13.3-32.2c-8.6-8.1-19.5-12.2-32.6-12.2c-13.1,0-23.9,4.1-32.6,12.2c-8.6,7.8-13,18.6-13,32.2
		C54.8,197.9,59.1,208.8,67.7,216.9z"/>
	
		<radialGradient id="SVGID_1_" cx="-388.9518" cy="636.8053" r="1" gradientTransform="matrix(122.4996 -128.4997 -91.3266 -87.0622 105804.6953 5741.4932)" gradientUnits="userSpaceOnUse">
		<stop  offset="0" style="stop-color:#36374A"/>
		<stop  offset="1" style="stop-color:#1B1A22;stop-opacity:0"/>
		<stop  offset="1" style="stop-color:#36374A;stop-opacity:0"/>
	</radialGradient>
	<path class="st1" d="M103.8,89c28.5,0.8,51.7,10.1,69.5,27.8c17.8,17.5,26.7,40,26.7,67.5c0,28-9.3,51-27.9,69
		c-18.6,17.8-42.5,26.7-71.8,26.7c-29.3,0-53.3-8.9-71.8-26.7C10.2,235.6,1,212.5,1,184.3C1,163.4,6.4,145,17.1,129L102.7,0h62
		L103.8,89z M67.7,216.9c8.6,8.1,19.5,12.2,32.6,12.2c13.1,0,23.9-4.1,32.6-12.2c8.9-8.1,13.3-19,13.3-32.5
		c0-13.3-4.4-24.1-13.3-32.2c-8.6-8.1-19.5-12.2-32.6-12.2c-13.1,0-23.9,4.1-32.6,12.2c-8.6,7.8-13,18.6-13,32.2
		C54.8,197.9,59.1,208.8,67.7,216.9z"/>
	
		<radialGradient id="SVGID_2_" cx="-388.843" cy="645.6169" r="1" gradientTransform="matrix(-103.5002 123.4998 87.7731 73.5591 -96731.1406 515.0651)" gradientUnits="userSpaceOnUse">
		<stop  offset="0" style="stop-color:#36374A"/>
		<stop  offset="1" style="stop-color:#36374A;stop-opacity:0"/>
	</radialGradient>
	<path class="st2" d="M103.8,89c28.5,0.8,51.7,10.1,69.5,27.8c17.8,17.5,26.7,40,26.7,67.5c0,28-9.3,51-27.9,69
		c-18.6,17.8-42.5,26.7-71.8,26.7c-29.3,0-53.3-8.9-71.8-26.7C10.2,235.6,1,212.5,1,184.3C1,163.4,6.4,145,17.1,129L102.7,0h62
		L103.8,89z M67.7,216.9c8.6,8.1,19.5,12.2,32.6,12.2c13.1,0,23.9-4.1,32.6-12.2c8.9-8.1,13.3-19,13.3-32.5
		c0-13.3-4.4-24.1-13.3-32.2c-8.6-8.1-19.5-12.2-32.6-12.2c-13.1,0-23.9,4.1-32.6,12.2c-8.6,7.8-13,18.6-13,32.2
		C54.8,197.9,59.1,208.8,67.7,216.9z"/>
</g>
</svg>
